hero/solid/arrow-down-on-square-stack.svg

<svg width="24" height="24" viewBox="0 0 24 24" fill="none" xmlns="http://www.w3.org/2000/svg">
<path fill-rule="evenodd" clip-rule="evenodd" d="M9.75 6.75H6.75C5.09315 6.75 3.75 8.09315 3.75 9.75V17.25C3.75 18.9069 5.09315 20.25 6.75 20.25H14.25C15.9069 20.25 17.25 18.9069 17.25 17.25V9.75C17.25 8.09315 15.9069 6.75 14.25 6.75H11.25L11.25 1.5C11.25 1.08579 10.9142 0.75 10.5 0.75C10.0858 0.75 9.75 1.08579 9.75 1.5V6.75ZM9.75 6.75H11.25V12.4393L12.9697 10.7197C13.2626 10.4268 13.7374 10.4268 14.0303 10.7197C14.3232 11.0126 14.3232 11.4874 14.0303 11.7803L11.0303 14.7803C10.7374 15.0732 10.2626 15.0732 9.96967 14.7803L6.96967 11.7803C6.67678 11.4874 6.67678 11.0126 6.96967 10.7197C7.26256 10.4268 7.73744 10.4268 8.03033 10.7197L9.75 12.4393V6.75Z" fill="#0F172A"/>
<path d="M7.15137 21.75C7.67008 22.6467 8.6396 23.25 9.75002 23.25H17.25C18.9069 23.25 20.25 21.9069 20.25 20.25V12.75C20.25 11.6396 19.6467 10.6701 18.75 10.1514V17.25C18.75 19.7353 16.7353 21.75 14.25 21.75H7.15137Z" fill="#0F172A"/>
</svg>

<svg viewBox="0 0 24 24" xmlns="http://www.w3.org/2000/svg"><path fill-rule="evenodd" d="M9.75 6.75h-3v0c-1.66 0-3 1.34-3 3v7.5 0c0 1.65 1.34 3 3 3h7.5v0c1.65 0 3-1.35 3-3v-7.5 0c0-1.66-1.35-3-3-3h-3V1.5v0c0-.42-.34-.75-.75-.75 -.42 0-.75.33-.75.75v5.25Zm0 0h1.5v5.69l1.72-1.72v0c.28-.31.75-.32 1.06-.04 .3.28.31.75.03 1.06 -.02.01-.03.02-.04.03l-3 3v0c-.3.29-.77.29-1.06 0l-3-3 -.001 0c-.31-.29-.32-.76-.04-1.06 .28-.31.75-.32 1.06-.04 .01.01.02.02.03.03l1.72 1.72V6.73Z"/><path d="M7.151 21.75h0c.53.92 1.52 1.5 2.59 1.5h7.5v0c1.65 0 3-1.35 3-3v-7.5c0-1.11-.61-2.08-1.5-2.599v7.099 0c0 2.48-2.02 4.5-4.5 4.5H7.14Z"/></svg>
